X: 42
T: the Quarry Cross
C:
%D:
R: march
B: PC1 p.172
S: Fiddle Hell Online 2021-10-13 Portland Collection Jam handout
Z: 2022 John Chambers <jc:trillian.mit.edu>
M: C|
L: 1/8
K: Em	% The book has E dorian, but there are no C or c notes, and there are C major and A minor chords.
N: The BA "pickup" notes are in the last bars of each 4-bar phrase; they work a
N: bit better if moved to the start of the next phrase (as most versions do).
%%continueall
"^A"|: BA |\
"Em"G2E2 E2ED | B,2E2 E3G |\
[1,3 "D"F2D2 D3E | F2G2 AB :|\
[2,4 "C"G2B2 "D"A2F2 | "Em"E4 E2 \
"^B":: BA | "Em"B2e2 e3d |
             | e2B2 B2A2 |\
B2e2 e2d2 | "C"e4 "D"e3f ||\
"Em"g2e2 "D"f2gf | "C"e2B2 "Bm"B3A |\
"Am"G2E2 "Bm"E2F2 | "C"G2A2 "D"B2 :|


